X:1
T:MARINE CORPS HYMM  "SEMPER FIDELIS"
M:C
L:1/8
Q:80
C:TRADITIONAL
S:
K:HP
A{d}c | \
{gef}e2{A}e2{gef}e2{A}e2 | \
{gef}e3a2{gef}e2cd |
{gef}e2{A}e2dB3 | \
{G}A4{GAG}A2{g}A{d}c | \
{gef}e2{A}e2{gef}e2{A}e2 |
{gef}e3a2{gef}e2cd | \
{gef}e2{A}e2dB3 | \
{G}A4{GAG}A2ag |
{f}{e}f2d2{g}f2{ag}a2 | \
{gef}e3c{gef}e2ag | \
{g}f2d2{g}fa3 |
{gef}e4{GdG}e2A{d}c | \
{gef}e2{A}e2{gef}e2{A}e2 | \
{gef}e3a{gef}e2cd |
{gef}e2{A}e2{Gdc}dB3 | \
{G}A4{GAG}A2|]
